X: 111
Q: "Slow"
M: C
L: 1/8
K: Eb
V: 1
E<B,~GB {B}AG~FE | E<B,GB (A/c/B/A/)~G2 |\
~c(d/e/) ~B(d/e/) f/d/B/A/ A/G/c/B/ | B>ecA (G/F/)(A/G/) B/A/G/F/ |
E<B,~GB {B}AG~FE | E<B,GB (A/c/B/A/)~G2 |\
~c(d/e/) ~B(d/e/) (f/d/).B/.A/ (A/G/).c/.B/ | B>ecA G/B/A/D/ E2 ||
!f![EE,]>e g>e (e/d/).c/.B/ (B/c/)(d/e/) | B>e A/G/c/B/ ~(B/G/A/c/) B2 |\
!f![EE,]>e g>e (e/d/c/B/) (B/c/d/e/) | B>e (A/G/)c/B/ ~(B/G/A/c/) B2 |\
(B/e/d/e/) f/d/e/G/ A/c/f/a/ g/b/B/G/ | A>c B>e G/B/A/D/ E2 |]
V: 2 clef=bass middle=d
e2e2 (b2=bc') | g2ed (cd)e2 | a2g2 d2e2 | g2a2 b2B2 |
e2e2 (b2=bc') | g2ed (cd)e2 | a2g2 d2e2 | g2a2 bBe2 ||
e2e2 f2g2 | zg/a/ ba/g/ (_d'c') (d/f/b/a/) | g2ag fde2 | (c/d/f) (g/b/g/e/) bBe2 |
e2e2 f2g2 | zg/a/ ba/g/ (_d'c') (d/f/b/a/) | g2ag fde2 | (c/e/a) (g/b/g/e/) bBe2 |]


